public/home/dao-it/icons/arbitrum.svg

<svg width="40" height="40" viewBox="0 0 40 40" fill="none" xmlns="http://www.w3.org/2000/svg">
<mask id="mask0_2606_40" style="mask-type:luminance" maskUnits="userSpaceOnUse" x="0" y="0" width="40" height="40">
<path d="M39.893 0V39.893H0V0H39.893Z" fill="white"/>
</mask>
<g mask="url(#mask0_2606_40)">
<path d="M20 0C23.9556 0 27.8224 1.17298 31.1114 3.37061C34.4004 5.56824 36.9638 8.69181 38.4776 12.3463C39.9913 16.0009 40.3874 20.0222 39.6157 23.9018C38.844 27.7814 36.9392 31.3451 34.1421 34.1421C31.3451 36.9392 27.7814 38.844 23.9018 39.6157C20.0222 40.3874 16.0009 39.9913 12.3463 38.4776C8.69181 36.9638 5.56824 34.4004 3.37061 31.1114C1.17298 27.8224 0 23.9556 0 20C0 14.6957 2.10714 9.60859 5.85786 5.85786C9.60859 2.10714 14.6957 0 20 0Z" fill="#DFE225"/>
</g>
<g clip-path="url(#clip0_2606_40)">
<path d="M8.53125 14.512V25.488C8.53125 26.1936 8.90085 26.832 9.51685 27.1904L19.0256 32.6784C19.6304 33.0256 20.3808 33.0256 20.9856 32.6784L30.4944 27.1904C31.0992 26.8432 31.48 26.1936 31.48 25.488V14.512C31.48 13.8064 31.1104 13.168 30.4944 12.8096L20.9856 7.3216C20.3808 6.9744 19.6304 6.9744 19.0256 7.3216L9.51685 12.8096C8.91205 13.1568 8.54245 13.8064 8.54245 14.512H8.53125Z" fill="#DFE225"/>
<path d="M22.0728 22.128L20.7176 25.8464C20.684 25.9472 20.684 26.0592 20.7176 26.1712L23.0472 32.5664L25.7464 31.0096L22.5096 22.128C22.4312 21.9264 22.1512 21.9264 22.0728 22.128Z" fill="#242424"/>
<path d="M24.7947 15.8784C24.7163 15.6768 24.4363 15.6768 24.3579 15.8784L23.0027 19.5968C22.9691 19.6976 22.9691 19.8096 23.0027 19.9216L26.8219 30.3936L29.5211 28.8368L24.7947 15.8896V15.8784Z" fill="#242424"/>
<path d="M20.0004 7.736C20.0676 7.736 20.1348 7.7584 20.1908 7.792L30.4724 13.728C30.5956 13.7952 30.6628 13.9296 30.6628 14.064V25.936C30.6628 26.0704 30.5844 26.2048 30.4724 26.272L20.1908 32.208C20.1348 32.2416 20.0676 32.264 20.0004 32.264C19.9332 32.264 19.866 32.2416 19.81 32.208L9.52842 26.272C9.40522 26.2048 9.33802 26.0704 9.33802 25.936V14.0528C9.33802 13.9184 9.41642 13.784 9.52842 13.7168L19.81 7.7808C19.866 7.7472 19.9332 7.7248 20.0004 7.7248V7.736ZM20.0004 6C19.6308 6 19.2724 6.0896 18.9364 6.28L8.65482 12.216C7.99402 12.5968 7.59082 13.2912 7.59082 14.0528V25.9248C7.59082 26.6864 7.99402 27.3808 8.65482 27.7616L18.9364 33.6976C19.2612 33.888 19.6308 33.9776 20.0004 33.9776C20.37 33.9776 20.7284 33.888 21.0644 33.6976L31.346 27.7616C32.0068 27.3808 32.41 26.6864 32.41 25.9248V14.0528C32.41 13.2912 32.0068 12.5968 31.346 12.216L21.0532 6.28C20.7284 6.0896 20.3588 6 19.9892 6H20.0004Z" fill="#242424"/>
<path d="M13.1904 30.4048L14.1424 27.8064L16.0464 29.3856L14.2656 31.0208L13.1904 30.4048Z" fill="#DFE225"/>
<path d="M19.1264 13.2128H16.5168C16.3264 13.2128 16.1472 13.336 16.08 13.5152L10.4912 28.8368L13.1904 30.3936L19.3504 13.5152C19.4064 13.3584 19.2944 13.2016 19.1376 13.2016L19.1264 13.2128Z" fill="#242424"/>
<path d="M23.696 13.2128H21.0864C20.896 13.2128 20.7168 13.336 20.6496 13.5152L14.2656 31.0096L16.9648 32.5664L23.9088 13.5152C23.9648 13.3584 23.8528 13.2016 23.696 13.2016V13.2128Z" fill="#242424"/>
</g>
<defs>
<clipPath id="clip0_2606_40">
<rect width="28" height="28" fill="white" transform="translate(6 6)"/>
</clipPath>
</defs>
</svg>

<svg viewBox="0 0 40 40" xmlns="http://www.w3.org/2000/svg"><mask id="a" style="mask-type:luminance" maskUnits="userSpaceOnUse" x="0" y="0" width="40" height="40"><path d="M39.893 0v39.893H0V0z" fill="#fff"/></mask><g mask="url(#a)"><path d="M20 0a20 20 0 1 1 0 40 20 20 0 0 1 0-40" fill="#DFE225"/></g><g clip-path="url(#b)"><path d="M8.531 14.512v10.976c0 .706.37 1.344.986 1.702l9.509 5.488a1.97 1.97 0 0 0 1.96 0l9.508-5.488c.605-.347.986-.996.986-1.702V14.512c0-.706-.37-1.344-.986-1.702l-9.508-5.488a1.97 1.97 0 0 0-1.96 0l-9.51 5.488a1.96 1.96 0 0 0-.974 1.702z" fill="#DFE225"/><path d="m22.073 22.128-1.355 3.718a.54.54 0 0 0 0 .325l2.33 6.395 2.698-1.556-3.236-8.882a.233.233 0 0 0-.437 0m2.722-6.25a.233.233 0 0 0-.437 0l-1.355 3.719a.54.54 0 0 0 0 .325l3.819 10.472 2.7-1.557-4.727-12.947z" fill="#242424"/><path d="M20 7.736c.068 0 .135.022.19.056l10.282 5.936a.38.38 0 0 1 .19.336v11.872a.4.4 0 0 1-.19.336l-10.281 5.936a.4.4 0 0 1-.19.056.4.4 0 0 1-.191-.056L9.528 26.272a.38.38 0 0 1-.19-.336V14.053c0-.135.078-.269.19-.336L19.81 7.78a.4.4 0 0 1 .19-.056zM20 6c-.37 0-.728.09-1.064.28L8.655 12.216a2.11 2.11 0 0 0-1.064 1.837v11.872c0 .761.403 1.456 1.064 1.837l10.281 5.936a2.1 2.1 0 0 0 1.064.28c.37 0 .728-.09 1.064-.28l10.282-5.936a2.11 2.11 0 0 0 1.064-1.837V14.053c0-.762-.403-1.456-1.064-1.837L21.053 6.28A2.1 2.1 0 0 0 19.99 6z" fill="#242424"/><path d="m13.19 30.405.952-2.599 1.904 1.58-1.78 1.635z" fill="#DFE225"/><path d="M19.126 13.213h-2.61a.47.47 0 0 0-.436.302l-5.589 15.322 2.7 1.557 6.16-16.879a.23.23 0 0 0-.213-.313zm4.57 0h-2.61c-.19 0-.37.123-.436.302L14.266 31.01l2.699 1.556 6.944-19.05a.23.23 0 0 0-.213-.314z" fill="#242424"/></g><defs><clipPath id="b"><path fill="#fff" d="M6 6h28v28H6z"/></clipPath></defs></svg>
